X:1
T:Famous Flower of Servingmen
M:3/2
L:1/4
K:F
 AA/2-A/2 F| G3A/2-G/2 F E| D3 G Ac/2-c/2| d2 d2 c d| A3 G A c| d2 e3/2 d/2 c d|\
 A3 A G ^F| G2 A3/2 B/2A/2-G/2 E| D2||
